build/images/icon-small-no-tp.svg

<?xml version="1.0" encoding="UTF-8" standalone="no"?>
<svg width="40px" height="40px" viewBox="0 0 40 40" version="1.1" xmlns="http://www.w3.org/2000/svg" xmlns:xlink="http://www.w3.org/1999/xlink">
    <!-- Generator: Sketch 3.7.2 (28276) - http://www.bohemiancoding.com/sketch -->
    <title>icon-small-no-tp</title>
    <desc>Created with Sketch.</desc>
    <defs></defs>
    <g id="Page-1" stroke="none" stroke-width="1" fill="none" fill-rule="evenodd">
        <g id="icon-small-no-tp">
            <g id="thin-0976_paper_towel" transform="translate(6.000000, 6.000000)">
                <g id="Group" stroke="#1168F4" stroke-width="2">
                    <ellipse id="Oval" cx="21.5292" cy="10.272" rx="6.43308" ry="9.59808"></ellipse>
                    <path d="M21.5292,0.6738 L7.0908,0.6738 C3.53796,0.6738 0.65772,5.02908 0.65772,10.40172 L0.65772,28.05648 L3.0642,25.65012 L5.4702,28.05648 L7.87704,25.65012 L10.28328,28.05648 L12.68976,25.65012 L15.09624,28.05648 L15.09624,10.40172" id="Shape"></path>
                    <ellipse id="Oval" cx="21.5292" cy="10.272" rx="2.02644" ry="3.0234"></ellipse>
                    <path d="M21.5292,19.87008 L15.09624,19.87008" id="Shape"></path>
                </g>
                <rect id="Rectangle-path" x="0.01704" y="0.04248" width="28.8" height="28.8"></rect>
            </g>
        </g>
    </g>
</svg>

<svg width="40" height="40" viewBox="0 0 40 40" xmlns="http://www.w3.org/2000/svg"><title>icon-small-no-tp</title><g fill="none" fill-rule="evenodd"><g stroke="#1168F4" stroke-width="2" transform="translate(6 6)"><ellipse cx="21.529" cy="10.272" rx="6.433" ry="9.598"/><path d="M21.53.674H7.09C3.539.674.659 5.029.659 10.402v17.654l2.406-2.406 2.406 2.406 2.407-2.406 2.406 2.406 2.407-2.406 2.406 2.406V10.402"/><ellipse cx="21.529" cy="10.272" rx="2.026" ry="3.023"/><path d="M21.53 19.87h-6.434"/></g><path d="M6.017 6.042h28.8v28.8h-28.8z"/></g></svg>
